X:8272
T:Jota de L.laciana
R:jota
C:Trad
Z:Mtodu de Gaita
M:3/8
L:1/8
Q:3/8=100
K:Cm
|:C>CC|CD{F}E|{G}E2 D-|D3|
B,>B,{A}B,|{A}B,CD|~D2 C-|C3|C>CC|
CD{F}E|{G}E2 D-|F2 E|~D2 B,-|B,CD|
~D2 C-|C2- C/2 z/:||: CD{F}E|F2 E|CFE|
~C2 =B,|{A}=B,CD|{F}E2 ~D|=B,{A}B,{A}B,|
[1 C2 C :|[2 C3-|C2 z||
